X:1
T:Title
%%score { ( 1 3 ) | ( 2 4 ) }
L:1/8
Q:1/4=100
M:4/4
K:Db
V:1 treble nm="Grand Piano"
V:3 treble 
V:2 bass 
V:4 bass 
V:1
 [FA]>[_F=G] [=FA]>[_FG] [=FA]2 [Fd]2 | [Gd]2 [Gc]2 [Gc]4 | G>F G>F G2 [CGc]2 | [FB]2 [FA]2 [FA]4 | %4
w: Haldor~Lillenas * * * * *||||
 [Fd]>[Fd] [Fd]>[Fd] [Fd]2 [FA]2 | B>B B>B [=Ge]2 [Gd]2 | c>c c>B A>B c>e | [Fd]6 z2 | %8
w: ||||
 [FA]>[_F=G] [=FA]>[_FG] [=FA]>[Fd] [Fc]>[FB] | [Gc]8[K:bass][K:treble] | %10
w: ||
 C->[CF] C->[CF] C->[CA] [Gc]>B | [FA]->[DF-A-] [DF-A-]>[DF-A-] [DF-A-]>[DF-A-] [DFA]2 | %12
w: ||
 [Fd]>[Fd] [Fd]>[Fd] [Fd]2 [FA]2 | B>B B>B [=Ge]2 [Gd]2 | c>c c>B A>B c>e | [Fd]6 z2 |] %16
w: ||||
V:2
 [D,D]>[D,D] [D,D]>[D,D] [D,D]2 [D,A,]2 | [E,A,]2 [E,A,]2 [E,A,]4 | %2
 [A,CE]>[A,_C=D] [A,=CE]>[A,_CD] [A,=CE]2 A,,2 | [D,D]2 [D,D]2 [D,D]4 | %4
 [D,A,]>[D,A,] [D,A,]>[D,A,] [D,A,]2 [D,D]2 | [G,DG]>[G,DG] [G,DG]>[G,DG] [E,D]2 [E,E]2 | %6
 [A,EG]>[A,EG] [A,EG]>[A,DG] [A,CG]>[A,CG] [A,EG]>[A,G] | [D,A,]6 z2 | %8
 [D,D]2 [D,D]2 [D,D]2 [D,A,]2 | [E,A,]=D, E,>F, E,>C, A,,2 | z z/ =D/ z z/ D/ z z/ F/ z z/ G/ | %11
 D,>A,, B,,>C, D,>F, A,2 | [D,A,]>[D,A,] [D,A,]>[D,A,] [D,A,]2 [D,D]2 | %13
 [G,DG]>[G,DG] [G,DG]>[G,DG] [E,D]2 [E,E]2 | %14
 [A,EG]>[A,EG] [A,EG]>[A,DG] [A,CG]>[A,CG] [A,EG]>[A,G] | [D,A,]6 z2 |] %16
V:3
 x8 | x8 | x8 | x8 | x8 | x8 | x8 | x8 | x8 | z[K:bass] A, A,>A, A,>A,[K:treble] C2 | %10
 [EG]2 [EG]2 [EG]2 C2 | D2 z2 z4 | x8 | x8 | x8 | x8 |] %16
V:4
 x8 | x8 | x8 | x8 | x8 | x8 | x8 | x8 | x8 | x8 | A,,2 A,,2 A,,2 A,,2 | x8 | x8 | x8 | x8 | x8 |] %16

